!!!COM: Anton (Friedrich Wilhelm von) Webern
!!!OTL: [T404_Web-w22p5m17-24]
**kern	**dynam	**kern	**dynam	**kern	**dynam
*grp:A	*grp:A	*grp:B	*grp:B	*grp:A	*grp:A
*part3	*part3	*part2	*part2	*part1	*part1
*staff3	*staff3	*staff2	*staff2	*staff1	*staff1
*I"Violoncello	*I"Violoncello	*I"Viola	*I"Viola	*I"Violin I	*I"Violin I
*I'Vc.	*	*I'Vla.	*	*I'Vln. I	*
*clefF4	*	*clefC3	*	*clefG2	*
*k[]	*	*k[]	*	*k[]	*
*C:	*	*C:	*	*C:	*
*M2/8	*	*M2/8	*	*M2/8	*
!!LO:REH:t=17
=17	=17	=17	=17	=17	=17
!	!	!	!	!LO:TX:t=[[16th]=52]	!
32.r	.	64r	.	48r	.
.	.	64ccn'LLLL	p	.	.
.	.	.	.	48r	.
.	.	(64cc	>	.	.
!	!	!	!	!LO:TX:a:t=(pizz.)	!
.	.	.	.	48Gn~"	p
!LO:TX:a:t=pizz.	!	!	!	!	!
64GG#X'"	pp	64Bn'JJJJ)	]	.	.
!LO:TUP:a	!	!	!	!LO:TUP:a	!
48r	.	(64BLLLL	pp >	48r	.
.	.	64b-X')	.	.	.
!LO:TX:a:t=arco	!	!	!	!	!
24A~	< [ >	.	.	48r	pp
.	.	64b-'	.	.	.
!	!	!	!	!LO:TX:a:t=arco	!
.	.	.	.	[48ee-X	<
.	.	64b-'JJJJ	]	.	.
*	*	*clefG2	*	*	*
!LO:TX:a:t=pizz.	!	!	!	!LO:TUP:a	!
48r	]	64r'	.	24ee-]	[ >
.	.	(32dddnLLL	p >	.	.
48FFn~LLL"	pp >	.	.	.	.
48En~JJJ"	]	.	.	48r	]
.	.	64ff#X'JJJk)	.	.	.
*	*	*clefC3	*	*	*
!	!	!LO:TUP:a	!	!	!
16r	.	48r	]	64r	pp
.	.	.	.	(64ccnLLLL	<
!	!	!LO:TX:a:t=pizz.	!	!	!
.	.	48gn~LLL"	pp	.	.
.	.	.	.	64bbn	[ >
.	.	48G#X~JJJ"	.	.	.
.	.	.	.	64b-XJJJJ)	]
!!LO:REH:t=18
=18	=18	=18	=18	=18	=18
!LO:TUP:a	!	!	!	!	!
!LO:TX:a:t=(pizz.)	!	!	!	!	!
48r	.	32.r	.	64r	.
!	!	!	!	!LO:TX:a:t=pizz.	!
.	.	.	.	64aaan'LLLL"	p >
48C#X'LLL"	pp <	.	.	.	.
.	.	.	.	64eee-X'"	.
48dn'JJJ"	[	.	.	.	.
!	!	!LO:TX:a:t=arco	!	!	!
.	.	(64fnLLLL	p >	64een'JJJJ"	.
!	!	!	!	!LO:TUP:a	!
64r	.	64F#X	.	48r	]
64GGn'LLLL"	>	64cnJJJJ)	]	.	.
!	!	!	!	!LO:TX:a:t=arco	!
.	.	.	.	(48bnLLL	p <
64g#X'"	.	32r	.	.	.
.	.	.	.	48bb-XJJJ	.
64An'JJJJ"	]	.	.	.	.
!	!	!LO:TX:a:t=pizz.	!	!LO:TUP:a	!
32.r	.	64r	.	24ccc#XLL	[ >
.	.	64E-X'LLLL"	pp >	.	.
.	.	64dn'JJJJ"	.	.	.
.	.	.	.	48ffnJJk	.
64EEn'"	pp	64r	]	.	.
!	!	!LO:TUP:a	!	!	!
48r	pp	48r	.	64r	]
!	!	!	!	!LO:TX:a:t=pizz.	!
.	.	.	.	64f#X'LLLL"	pp
!LO:TX:a:t=arco	!	!	!	!	!
24Cn~	<	48r	.	.	.
.	[	.	.	64Gn'"	.
!	!	!LO:TX:a:t=arco	!	!	!
.	>	([48bn	pp < [	.	.
.	]	.	.	64g#X'JJJJ"	.
!!LO:REH:t=19
=19	=19	=19	=19	=19	=19
32r	.	48bLLL]	>	32.r	.
.	.	48B-X	.	.	.
!LO:TX:a:t=pizz.	!	!	!	!	!
64AAn'LLLL"	pp >	.	.	.	.
.	.	48cnJJJ)	.	.	.
!	!	!	!	!LO:TX:a:t=arco	!
64E-X'JJJJ"	.	.	.	64ddn'	pp
!	!	!LO:TX:a:t=pizz.	!	!	!
16r	]	32.r	]	(48fnLLL	>
.	.	.	.	48een	.
.	.	.	.	48fff#XJJJ)	.
.	.	64Gn" 64cn"	ppp	.	.
*clefC4	*	*	*	*	*
!LO:TX:a:t=arco	!	!LO:TX:a:t=arco	!	!	!
48r	.	32r	.	32.r	]
(48bnLLL	p >	.	.	.	.
*	*	*clefG2	*	*	*
.	.	(64g#XLLLL	p	.	.
48B-XJJJ)	]	.	.	.	.
!	!	!LO:TX:t=○	!	!	!
.	.	64aanJJJJ)	<	64c#X'	p >
*clefF4	*	*	*	*	*
48r	.	48r	[	(32.ee-XLLL	.
24DDn~	pp < [ > ]	48r	.	.	.
*	*	*clefC3	*	*	*
!	!	!LO:TX:a:t=pizz.	!	!	!
.	.	48Fn~"	pp	.	.
.	.	.	.	64enJJJk)	]
!!LO:REH:t=20
=20	=20	=20	=20	=20	=20
32r	.	16r	.	48r	pp
.	.	.	.	(48ccnLLL	>
!LO:TX:a:t=pizz.	!	!	!	!	!
64Gn'LLLL"	pp >	.	.	.	.
.	.	.	.	48BnJJJ)	]
64g#X'JJJJ"	.	.	.	.	.
48r	]	32r	.	16r	.
48r	.	.	.	.	.
!	!	!LO:TX:a:t=arco	!	!	!
.	.	(16b-XLL	p <	.	.
48An~"	pp	.	.	.	.
!	!	!	!	!LO:TUP:a	!
16r	.	.	.	48r	.
.	.	.	.	48r	.
.	.	16cc#X	[ >	.	.
*	*	*	*	*8va	*
!	!	!	!	!LO:TX:t=P:problem:8va not rendering	!
.	.	.	.	(48eeee-X	p
*	*	*	*	*X8va	*
64FFn~LLLL"	p >	.	.	48dddnLLL	>
64En~"	.	.	.	.	.
.	.	.	.	48ff#X	.
64r	.	32cnJJk)	]	.	.
.	.	.	.	48GnJJJ)	]
64BBn'JJJJ"	]	.	.	.	.
!!LO:REH:t=21
=21	=21	=21	=21	=21	=21
16r	.	16r	.	\(32g#XLLL	pp
.	.	.	.	32bb-XJ)	<
!LO:TX:a:t=(pizz.)	!	!LO:TX:a:t=pizz.	!	!	!
!LO:TUP:a	!	!	!	!	!
48r	.	32.r	.	16AnJJ	[ >
48C#X~LLL"	pp >	.	.	.	.
48e-X~JJJ"	.	.	.	.	.
*	*	*clefG2	*	*	*
.	.	64ddn'"	pp	.	.
!	!	!LO:TX:a:t=arco	!	!	!
!LO:TUP:a	!	!LO:TUP:a	!	!	!
24r	]	40r	.	8r	]
!	!	!LO:TX:a:t=am Steg - - ┐	!	!	!
.	.	(\40ffnLLL	pp >	.	.
24En~LL"	ppp >	.	.	.	.
.	.	40f#X	.	.	.
.	.	40cn	.	.	.
24Gn~JJ"	]	.	.	.	.
.	.	40bnJJJ)	]	.	.
!!LO:REH:t=22
=22	=22	=22	=22	=22	=22
48r	.	16r	.	32.r	pp
!LO:TX:a:t=arco	!	!	!	!	!
[24GG#X	pp <	.	.	.	.
.	.	.	.	(64b-X	<
*	*	*clefC3	*	*	*
!	!	!LO:TUP:a	!	!	!
24GG#]	[ >	48r	pp <	48aanLLL	[
.	.	24c#X~	[ >	96ee-X'JJJk)	>
!	!	!	!	!LO:TX:a:B:t=rit. -    -	!
.	.	.	]	32r	]
48r	]	.	.	.	ppp
!	!	!	!	!LO:TX:t=P:problem: Tempo alterations should all be level on the same Horizontal Plane.	!
8r	.	8r	.	(16dddnLL	.
.	.	.	.	16ffnJJ)	>]
!!LO:REH:t=23
=23	=23	=23	=23	=23	=23
!	!	!	!	!LO:TX:a:B:t=-   tempo	!
32r	.	16r	.	16r	.
32En'LLL	pp	.	.	.	.
32f#X'	< [	32.r	.	48r	.
.	.	.	.	(48ccnLLL	pp >
32Gn'JJJ	>]	.	.	.	.
.	.	.	.	48BnJJJ)	.
.	.	([64gg#X	pp	.	.
32r	.	12gg#L]	<	16r	]
32BB-X'LLL	pp >	.	[	.	.
!	!	!	!	!LO:TX:a:B:t=rit. -    -	!
!	!	!	!	!LO:TX:t=P:problem: There should be a line between these two notes to indicates a gliss.	!
32An'JJJ	.	.	>	(32ccc#XLLL	pp
.	.	24dd#XJk)	.	.	.
32r	]	.	]	32dnJJJ)	.
!!LO:REH:t=24
=24	=24	=24	=24	=24	=24
!	!	!	!	!LO:TX:a:B:t=-     tempo	!
16r	.	48r	.	16r	.
.	.	(48fnLLL	ppp	.	.
.	.	48EnJJJ)	.	.	.
*clefC4	*	*	*	*	*
!	!	!	!	!LO:TX:a:t=pizz.	!
32.r	.	48r	.	32f#X'LLL	ppp >
.	.	24Dn~	pp	.	.
.	.	.	.	32Gn'JJJ	.
64bn~	ppp	.	.	.	.
8r	.	8r	.	8r'	]
==	==	==	==	==	==
*-	*-	*-	*-	*-	*-
!!!system-decoration: [(s1,s2,s3)]
!!!EED: Daniel Wright
!!!EEV: 2021/07/28
!!!EED2: Gabriella Vici
!!!EEV2: 2022/02/09
